src/assets/image/donate/member.svg

<svg width="30" height="30" viewBox="0 0 30 30" fill="none" xmlns="http://www.w3.org/2000/svg">
<path d="M5.25593 22.0189L4.93833 22.6169L5.37573 23.1338C7.68506 25.8631 11.1407 27.6129 15 27.6129C18.8593 27.6129 22.3149 25.8631 24.6243 23.1338L25.0617 22.6169L24.7441 22.0189C23.4448 19.5724 20.8915 17.871 17.9032 17.871C17.6478 17.871 17.4043 17.9134 17.1826 17.9808L17.1734 17.9836L17.1642 17.9866C16.4614 18.2154 15.7385 18.3548 15 18.3548C14.2625 18.3548 13.5452 18.2158 12.8336 17.9859L12.8255 17.9833L12.8174 17.9808C12.5957 17.9134 12.3522 17.871 12.0968 17.871C9.10847 17.871 6.55519 19.5724 5.25593 22.0189ZM1 15C1 7.26599 7.26599 1 15 1C22.734 1 29 7.26599 29 15C29 22.734 22.734 29 15 29C7.26599 29 1 22.734 1 15ZM21.3226 11.129C21.3226 7.63723 18.4918 4.80645 15 4.80645C11.5082 4.80645 8.67742 7.63723 8.67742 11.129C8.67742 14.6208 11.5082 17.4516 15 17.4516C18.4918 17.4516 21.3226 14.6208 21.3226 11.129Z" stroke="white" stroke-width="2"/>
</svg>

<svg width="30" height="30" fill="none" xmlns="http://www.w3.org/2000/svg"><path d="m5.256 22.019-.318.598.438.517c2.31 2.73 5.765 4.479 9.624 4.479 3.86 0 7.315-1.75 9.624-4.48l.438-.516-.318-.598c-1.3-2.447-3.852-4.148-6.84-4.148-.256 0-.5.042-.721.11l-.01.003-.009.003a6.981 6.981 0 0 1-2.164.368c-.738 0-1.455-.14-2.166-.37l-.008-.002-.009-.002a2.482 2.482 0 0 0-.72-.11c-2.989 0-5.542 1.701-6.841 4.148ZM1 15C1 7.266 7.266 1 15 1s14 6.266 14 14-6.266 14-14 14S1 22.734 1 15Zm20.323-3.871a6.323 6.323 0 1 0-12.646 0 6.323 6.323 0 0 0 12.646 0Z" stroke="#fff" stroke-width="2"/></svg>
